symbols/web/navigation/materialsymbolsrounded/navigation_wght700_20px.svg

<svg xmlns="http://www.w3.org/2000/svg" height="20" width="20"><path d="M5.042 18.333q-.459.188-.927.115-.469-.073-.844-.448t-.459-.844q-.083-.468.126-.906L8.771 3.167q.354-.813 1.229-.813.875 0 1.229.813l5.833 13.083q.209.438.126.906-.084.469-.459.844t-.844.448q-.468.073-.927-.115L10 16.229Zm1.52-3.604L10 13.271l3.438 1.458L10 7.042ZM10 13.271Z"/></svg>

<svg xmlns="http://www.w3.org/2000/svg" height="20" width="20"><path d="M5.042 18.333Q4.583 18.521 4.115 18.448Q3.646 18.375 3.271 18Q2.896 17.625 2.812 17.156Q2.729 16.688 2.938 16.25L8.771 3.167Q9.125 2.354 10 2.354Q10.875 2.354 11.229 3.167L17.062 16.25Q17.271 16.688 17.188 17.156Q17.104 17.625 16.729 18Q16.354 18.375 15.885 18.448Q15.417 18.521 14.958 18.333L10 16.229ZM6.562 14.729 10 13.271 13.438 14.729 10 7.042ZM10 13.271Z"/></svg>
